!!!!SEGMENT: pl-cz--i-70_kottritsch-franciszek--in-hac-annua.krn
!!!cenid: 17xx:926
!!!COM: Kottritsch, Franciszek
!!!COM-rismID: pe30040598
!!!CDT: ~1727-1787
!!!CNT:
!!!OTL: In hac annua
!!!PDT:
!!!AGN: Sacred
!!!SMS-siglum: PL-CZ
!!!SMS-shelfmark: I-70
!!!SMS-shelfwork: W
!!!SMS-variant:
!!!SMS-altvar:
!!!NIFC-rismSourceID: 300000617
!!!NIFC-islandoraID: pl-cz:2375
!!!URL-pdf-islandora: https://repozytorium.nifc.pl/islandora/object/pl-cz%3A2375/datastream/PDF/view
!!!URL-scan: https://polish.musicsources.pl/pl/lokalizacje/galeria/rekopisy/651 @EN{Scan on Polish Music Sources Website} @PL{Skany w portalu Dziedzictwo Muzyki Polskiej w otwartym dostępie}
!!!ONB-nifc:
!!!AIN: 2 cor 2 oboe 1 organ 2 soprn 2 violn
!!!key: C
**kern	**kern	**dynam	**kern	**dynam	**kern	**text	**text	**kern	**text	**text	**kern	**kern	**kern	**kern
*	*group4	*	*group4	*	*group3	*	*	*group3	*	*	*group2	*group2	*group1	*group1
*part9	*part8	*part8	*part7	*part7	*part6	*part6	*part6	*part5	*part5	*part5	*part4	*part3	*part2	*part1
*staff9	*staff8	*	*staff7	*	*staff6	*staff6	*staff6	*staff5	*staff5	*staff5	*staff4	*staff3	*staff2	*staff1
*I"Organo.	*I"Violino 2do	*	*I"Violino Primo.	*	*I"Canto 2do	*	*	*I"Canto Primo.	*	*	*I"Cornu Secundo	*I"Cornu Primo	*I"Oboe 2	*I"Oboe Prima.
*I'org	*I'vl 2	*	*I'vl 1	*	*I'S 2	*	*	*I'S 1	*	*	*I'cor 2	*I'cor 1	*I'ob 2	*I'ob 1
*Iorgan	*Ivioln	*	*Ivioln	*	*Isoprn	*	*	*Isoprn	*	*	*Icor	*Icor	*Ioboe	*Ioboe
*ICklav	*ICstr	*	*ICstr	*	*ICvox	*	*	*ICvox	*	*	*ICbras	*ICbras	*ICww	*ICww
*IGacmp	*IGacmp	*	*IGacmp	*	*IGcoro	*	*	*IGcoro	*	*	*IGacmp	*IGacmp	*IGacmp	*IGacmp
*clefF4	*clefG2	*	*clefG2	*	*clefC1	*	*	*clefC1	*	*	*	*	*clefG2	*clefG2
*k[]	*k[]	*	*k[]	*	*k[]	*	*	*k[]	*	*	*	*	*k[]	*k[]
*C:	*C:	*	*C:	*	*C:	*	*	*C:	*	*	*	*	*C:	*C:
*M3/4	*M3/4	*	*M3/4	*	*M3/4	*	*	*M3/4	*	*	*	*	*M3/4	*M3/4
=1	=1	=1	=1	=1	=1	=1	=1	=1	=1	=1	=1	=1	=1	=1
!	!	!	!	!	!	!	!	!LO:TX:a:t=16.	!	!	!	!	!	!
!LO:TX:a:B:t=Moderato.	!LO:TX:a:B:t=Moderato.	!	!LO:TX:a:B:t=Moderato.	!	!LO:TX:a:B:t=Moderato.	!	!	!LO:TX:a:B:t=Moderato.	!	!	!LO:TX:t=P:problem=zgodnie z RISM "cor 1, 2 missing"	!LO:TX:t=P:problem=zgodnie z RISM "cor 1, 2 missing"	!LO:TX:a:B:t=Moderato.	!LO:TX:a:B:t=Moderato.
4c\	(8ee\L	.	8gg\L	.	0.r	.	.	0.r	.	.	2.ryy	2.ryy	4ee\	4gg\
.	8cc\J)	.	8ee\	.	.	.	.	.	.	.	.	.	.	.
4C/	8r	.	8ccc\	.	.	.	.	.	.	.	.	.	4cc\	4ee\
.	8e/L	.	8gg\	.	.	.	.	.	.	.	.	.	.	.
8r	8g/	.	8ee\	.	.	.	.	.	.	.	.	.	8r	8r
8C/	8e/J	.	8cc\J|	.	.	.	.	.	.	.	.	.	8e/	8cc\
=2	=2	=2	=2	=2	=2	=2	=2	=2	=2	=2	=2	=2	=2	=2
.	.	.	8qqdd/	.	.	.	.	.	.	.	.	.	.	.
!LO:TX:t=P:problem=mixed beam	!	!	!	!	!	!	!	!	!	!	!	!	!	!
8G\L	8e/L	.	8cc\L	.	.	.	.	.	.	.	2.ryy	2.ryy	8e/L	8cc\L
8GG/	8d/J	.	8b\J	.	.	.	.	.	.	.	.	.	8d/J	8b\J
8BB/	4.d/	.	4.b\	.	.	.	.	.	.	.	.	.	4.d/	4.b\
8D/J	.	.	.	.	.	.	.	.	.	.	.	.	.	.
4G\	.	.	.	.	.	.	.	.	.	.	.	.	.	.
.	8e/	.	8cc\	.	.	.	.	.	.	.	.	.	8e/	8cc\
=3	=3	=3	=3	=3	=3	=3	=3	=3	=3	=3	=3	=3	=3	=3
4r	8g/L	.	(16dd\LL	.	.	.	.	.	.	.	2.ryy	2.ryy	8g/L	16dd\LL
.	.	.	16ee\	.	.	.	.	.	.	.	.	.	.	16ee\
.	16b/L	.	16dd\	.	.	.	.	.	.	.	.	.	16b/L	16dd\
.	16cc/JJ	.	16ee\JJ)	.	.	.	.	.	.	.	.	.	16cc/JJ	16ee\JJ
4B\	16dd\LL	.	16ff\LL	.	.	.	.	.	.	.	.	.	16dd\LL	16ff\LL
.	16ee\	.	16gg\	.	.	.	.	.	.	.	.	.	16ee\	16gg\
.	16dd\	.	16ff\	.	.	.	.	.	.	.	.	.	16dd\	16ff\
.	16ee\JJ	.	16gg\JJ	.	.	.	.	.	.	.	.	.	16ee\JJ	16gg\JJ
4G\	8ff\L|	.	8aa\L	.	.	.	.	.	.	.	.	.	8ff\L	8aa\L
.	16ee\L	.	16gg\L	.	.	.	.	.	.	.	.	.	16ee\L	16gg\L
.	16dd\JJ	.	16ff\JJ	.	.	.	.	.	.	.	.	.	16dd\JJ	16ff\JJ
=4	=4	=4	=4	=4	=4	=4	=4	=4	=4	=4	=4	=4	=4	=4
4c\	16cc/LL|	.	(16ee\LL	.	.	.	.	.	.	.	2.ryy	2.ryy	16cc/LL|	16ee\LL
.	(16g/	.	16ff\	.	.	.	.	.	.	.	.	.	(16g/	(16ee\
.	16f/	.	16ee\	.	.	.	.	.	.	.	.	.	16f/	16dd\
.	16e/JJ)	.	16cc\JJ)	.	.	.	.	.	.	.	.	.	16e/JJ)	16cc\JJ)
4G\	16f/LL|	.	(16dd\LL	.	.	.	.	.	.	.	.	.	16f/LL|	16dd\LL
.	(16f/	.	16dd\	.	.	.	.	.	.	.	.	.	(16f/	(16dd\
.	16e/	.	16cc\	.	.	.	.	.	.	.	.	.	16e/	16cc\
.	16d/JJ)	.	16b\JJ)	.	.	.	.	.	.	.	.	.	16d/JJ)	16b\JJ)
4C/	4e/	.	4cc\	.	.	.	.	.	.	.	.	.	4e/	4cc\
!	!	!	!	!	!	!	!	!	!	!	!	!	!LO:LB:g=original	!
=5	=5	=5	=5	=5	=5	=5	=5	=5	=5	=5	=5	=5	=5	=5
4GG/	16b\LL	.	(16dd\LL	.	0.r	.	.	0.r	.	.	2.ryy	2.ryy	4r	4r
.	16dd\	.	16ff\)	.	.	.	.	.	.	.	.	.	.	.
.	16cc\	.	(16ee\	.	.	.	.	.	.	.	.	.	.	.
.	16ee\JJ	.	16gg\JJ)	.	.	.	.	.	.	.	.	.	.	.
4G\	4dd\	.	4ff\	.	.	.	.	.	.	.	.	.	8r	8r
.	.	.	.	.	.	.	.	.	.	.	.	.	8dd\L	8ff\L
4r	4r	.	4r	.	.	.	.	.	.	.	.	.	8cc\	8ee\
.	.	.	.	.	.	.	.	.	.	.	.	.	8b\J	8dd\J
!LO:LB:g=original	!	!	!	!	!	!	!	!	!	!	!	!	!	!LO:LB:g=original
=6	=6	=6	=6	=6	=6	=6	=6	=6	=6	=6	=6	=6	=6	=6
4C/	16cc\LL	.	16ee\LL	.	.	.	.	.	.	.	2.ryy	2.ryy	4r	4r
.	16ee\	.	16gg\	.	.	.	.	.	.	.	.	.	.	.
.	16dd\	.	16ff\	.	.	.	.	.	.	.	.	.	.	.
.	16ff\JJ	.	16aa\JJ	.	.	.	.	.	.	.	.	.	.	.
4c\	4ee\	.	4gg\	.	.	.	.	.	.	.	.	.	8r	8r
.	.	.	.	.	.	.	.	.	.	.	.	.	8ee\L	8gg\L
4r	4r	.	4r	.	.	.	.	.	.	.	.	.	8dd\	8ff\
.	.	.	.	.	.	.	.	.	.	.	.	.	8cc\J	8ee\J
!	!LO:LB:g=original	!	!LO:LB:g=original	!	!	!	!	!	!	!	!	!	!	!
=7	=7	=7	=7	=7	=7	=7	=7	=7	=7	=7	=7	=7	=7	=7
4C/	8ff\L	.	8aa\L	.	.	.	.	.	.	.	2.ryy	2.ryy	8ff\L	8aa\L
.	8ee\J	.	8gg\	.	.	.	.	.	.	.	.	.	8ee\J	8gg\J
4c\	4ee\	.	8ccc\	.	.	.	.	.	.	.	.	.	4ee\	8ccc\L
.	.	.	8gg\	.	.	.	.	.	.	.	.	.	.	8gg\
8B\L	8dd\L	.	8ff\	.	.	.	.	.	.	.	.	.	8dd\L	8ff\
8c\J	8cc\J	.	8ee\J	.	.	.	.	.	.	.	.	.	8cc\J	8ee\J
=8	=8	=8	=8	=8	=8	=8	=8	=8	=8	=8	=8	=8	=8	=8
.	.	.	8qqff/	.	.	.	.	.	.	.	.	.	.	.
4G\	4ccT\	.	4eet\	.	.	.	.	.	.	.	2.ryy	2.ryy	4ccT\	4eet\
4GG/	4b\	.	4dd\	.	.	.	.	.	.	.	.	.	4b\	4dd\
4r	4r	.	4r	.	.	.	.	.	.	.	.	.	4r	4r
=9	=9	=9	=9	=9	=9	=9	=9	=9	=9	=9	=9	=9	=9	=9
*	*	*	*	*	*	*	*	*	*	*	*	*	*2\right	*2\right
4GG/	8b\	.	16ff\LL	.	0.r	.	.	0.r	.	.	2.ryy	2.ryy	2.dd\	2.ff\
.	.	.	16dd\	.	.	.	.	.	.	.	.	.	.	.
.	4b\	.	16b\	.	.	.	.	.	.	.	.	.	.	.
.	.	.	16dd\JJ	.	.	.	.	.	.	.	.	.	.	.
4G\	.	.	16g\LL	.	.	.	.	.	.	.	.	.	.	.
.	.	.	16b\	.	.	.	.	.	.	.	.	.	.	.
.	4b\	.	16dd\	.	.	.	.	.	.	.	.	.	.	.
.	.	.	16ff\JJ	.	.	.	.	.	.	.	.	.	.	.
.	.	.	8qqgg/	.	.	.	.	.	.	.	.	.	.	.
4F\	.	.	8ff\L	.	.	.	.	.	.	.	.	.	.	.
.	8b\	.	16ee\L	.	.	.	.	.	.	.	.	.	.	.
.	.	.	16ff\JJ	.	.	.	.	.	.	.	.	.	.	.
=10	=10	=10	=10	=10	=10	=10	=10	=10	=10	=10	=10	=10	=10	=10
4E\	4cc\	.	4ee\	.	.	.	.	.	.	.	2.ryy	2.ryy	8cc\L	16ee\LL
.	.	.	.	.	.	.	.	.	.	.	.	.	.	16cc\
.	.	.	.	.	.	.	.	.	.	.	.	.	16b\L	16dd\
.	.	.	.	.	.	.	.	.	.	.	.	.	16cc\JJ	16ee\JJ
4BB/	4r	.	4r	.	.	.	.	.	.	.	.	.	16dd\LL	16ff\LL
.	.	.	.	.	.	.	.	.	.	.	.	.	16ee\	16gg\
.	.	.	.	.	.	.	.	.	.	.	.	.	16ff\	16aa\
.	.	.	.	.	.	.	.	.	.	.	.	.	16dd\JJ	16bb\JJ
4C/	4r	.	8r	.	.	.	.	.	.	.	.	.	4ee\	4ccc\
.	.	.	8r	.	.	.	.	.	.	.	.	.	.	.
=11	=11	=11	=11	=11	=11	=11	=11	=11	=11	=11	=11	=11	=11	=11
4r	8b\	.	16ff\LL	.	.	.	.	.	.	.	2.ryy	2.ryy	2.dd\	2.ff\
.	.	.	16dd\	.	.	.	.	.	.	.	.	.	.	.
.	4b\	.	16b\	.	.	.	.	.	.	.	.	.	.	.
.	.	.	16dd\JJ	.	.	.	.	.	.	.	.	.	.	.
4G\	.	.	16g\LL	.	.	.	.	.	.	.	.	.	.	.
.	.	.	16b\	.	.	.	.	.	.	.	.	.	.	.
.	4b\	.	16dd\	.	.	.	.	.	.	.	.	.	.	.
.	.	.	16ff\JJ	.	.	.	.	.	.	.	.	.	.	.
.	.	.	8qqgg/	.	.	.	.	.	.	.	.	.	.	.
4F\	.	.	8ff\L	.	.	.	.	.	.	.	.	.	.	.
.	8b\	.	16ee\L	.	.	.	.	.	.	.	.	.	.	.
.	.	.	16ff\JJ	.	.	.	.	.	.	.	.	.	.	.
!	!	!	!	!	!	!	!	!	!	!	!	!	!LO:LB:g=original	!
=12	=12	=12	=12	=12	=12	=12	=12	=12	=12	=12	=12	=12	=12	=12
4E\	4cc\	.	4ee\	.	.	.	.	.	.	.	2.ryy	2.ryy	8cc\L	16ee\LL
.	.	.	.	.	.	.	.	.	.	.	.	.	.	16cc\
.	.	.	.	.	.	.	.	.	.	.	.	.	16b\L	16dd\
.	.	.	.	.	.	.	.	.	.	.	.	.	16cc\JJ	16ee\JJ
4BB/	4r	.	4r	.	.	.	.	.	.	.	.	.	16dd\LL	16ff\LL
.	.	.	.	.	.	.	.	.	.	.	.	.	16ee\	16gg\
.	.	.	.	.	.	.	.	.	.	.	.	.	16ff\	16aa\
.	.	.	.	.	.	.	.	.	.	.	.	.	16dd\JJ	16bb\JJ
4C/	8r	.	8r	.	.	.	.	.	.	.	.	.	4ee\	4ccc\
.	8ee\	.	8gg\	.	.	.	.	.	.	.	.	.	.	.
!LO:LB:g=original	!	!	!LO:LB:g=original	!	!	!	!	!	!	!	!	!	!	!LO:LB:g=original
=13	=13	=13	=13	=13	=13	=13	=13	=13	=13	=13	=13	=13	=13	=13
!LO:TX:t=P:problem=mixed beam	!	!	!	!	!	!	!	!	!	!	!	!	!	!
8C/L	(8ff\L	.	8aa\L	.	0.r	.	.	0.r	.	.	2.ryy	2.ryy	4ff\	4aa\
8c\J	8ee\J)	.	24ccc\L	.	.	.	.	.	.	.	.	.	.	.
.	.	.	24bb\	.	.	.	.	.	.	.	.	.	.	.
.	.	.	24aa\JJ	.	.	.	.	.	.	.	.	.	.	.
8C/L	4ee\	.	4gg\	.	.	.	.	.	.	.	.	.	4ee\	4gg\
8C/	.	.	.	.	.	.	.	.	.	.	.	.	.	.
8C/	8r	.	8r	.	.	.	.	.	.	.	.	.	4r	4r
8C/J	8cc\	.	8ee\	.	.	.	.	.	.	.	.	.	.	.
=14	=14	=14	=14	=14	=14	=14	=14	=14	=14	=14	=14	=14	=14	=14
8r	8dd\L	.	8ff\L	.	.	.	.	.	.	.	2.ryy	2.ryy	4dd\	4ff\
*	*	*	*Xtuplet	*	*	*	*	*	*	*	*	*	*	*
!LO:TX:t=P:problem=mixed beam	!	!	!	!	!	!	!	!	!	!	!	!	!	!
8c\L	8cc\J	.	24aa\L	.	.	.	.	.	.	.	.	.	.	.
.	.	.	24gg\	.	.	.	.	.	.	.	.	.	.	.
.	.	.	24ff\JJ	.	.	.	.	.	.	.	.	.	.	.
8C/	4cc\	.	4ee\	.	.	.	.	.	.	.	.	.	4cc\	4ee\
8C/	.	.	.	.	.	.	.	.	.	.	.	.	.	.
8C/	8r	.	8r	.	.	.	.	.	.	.	.	.	8r	8r
8BB/J	8dd\	.	8ff\	.	.	.	.	.	.	.	.	.	8dd\	8ff\
=15	=15	=15	=15	=15	=15	=15	=15	=15	=15	=15	=15	=15	=15	=15
!LO:TX:t=P:problem=mixed beam	!	!	!	!	!	!	!	!	!	!	!	!	!	!
8C\L	8ee\L	.	16gg\LL	.	.	.	.	.	.	.	2.ryy	2.ryy	8ee\L	8gg\L
.	.	.	16ee\	.	.	.	.	.	.	.	.	.	.	.
8F\	16ff\L	.	16aa\	.	.	.	.	.	.	.	.	.	16ff\L	16aa\L
.	16dd\JJ	.	16ff\JJ	.	.	.	.	.	.	.	.	.	16dd\JJ	16ff\JJ
*	*custos:cc	*	*	*	*	*	*	*	*	*	*	*	*	*
!	!LO:LB:g=original	!	!	!	!	!	!	!	!	!	!	!	!	!
8G\	8cc/L	.	16ee\LL	.	.	.	.	.	.	.	.	.	8cc/L	8ee\L
.	.	.	16gg\	.	.	.	.	.	.	.	.	.	.	.
8G\	16e/L	.	16cc\	.	.	.	.	.	.	.	.	.	8e/J	16cc\L
.	16g/JJ	.	16ee\JJ	.	.	.	.	.	.	.	.	.	.	16ee\JJ
.	8qqg/	.	8qqee/	.	.	.	.	.	.	.	.	.	.	8qqee/
8GG/	8f/L	.	8dd\L	.	.	.	.	.	.	.	.	.	8f/L	8dd\L
8GG/J	16e/L	.	16cc\L	.	.	.	.	.	.	.	.	.	8f/J	16cc\L
.	16d/JJ	.	16b\JJ	.	.	.	.	.	.	.	.	.	.	16b\JJ
=16	=16	=16	=16	=16	=16	=16	=16	=16	=16	=16	=16	=16	=16	=16
.	4qqd/	.	4qqb/	.	.	.	.	.	.	.	.	.	4qqf/	4qqb/
*	*	*	*2\right	*	*	*	*	*	*	*	*	*	*	*
!LO:TX:t=P:problem=mixed beam	!	!	!	!	!	!	!	!	!	!	!	!	!	!
8C/L	2e/	.	2cc\	.	.	.	.	.	.	.	2.ryy	2.ryy	2e/	2cc\
8c\	.	.	.	.	.	.	.	.	.	.	.	.	.	.
8G\	.	.	.	.	.	.	.	.	.	.	.	.	.	.
8E\J	.	.	.	.	.	.	.	.	.	.	.	.	.	.
4C/	4r	.	4r;	.	.	.	.	.	.	.	.	.	4r;	4r;
!LO:LB:g=original	!	!	!	!	!	!	!	!	!	!	!	!	!LO:LB:g=original	!
=17!|:	=17!|:	=17!|:	=17!|:	=17!|:	=17!|:	=17!|:	=17!|:	=17!|:	=17!|:	=17!|:	=17!|:	=17!|:	=17!|:	=17!|:
!LO:TX:a:i:t=Solo.	!	!LO:DY:t=po.	!	!LO:DY:t=po.	!	!	!	!LO:TX:a:t=g	!	!	!	!	!	!
4C/	4r	p	4g/	p	4g/	In	fiat	(4g\	In	Fiat	2.ryy	2.ryy	0.r	0.r
!	!	!	!	!	!	!	!	!LO:TX:a:t=c	!	!	!	!	!	!
4E\	4g/	.	4cc\	.	4e/	.	Sva-	4cc\)	.	Sva-	.	.	.	.
!	!	!	!	!	!	!	!	!LO:TX:a:t=c	!	!	!	!	!	!
4C/	4e/	.	4cc\	.	4e/	hac	-vis	4cc\	hac	-viſ	.	.	.	.
!	!	!	!LO:LB:g=original	!	!	!	!	!	!	!	!	!	!	!
=18	=18	=18	=18	=18	=18	=18	=18	=18	=18	=18	=18	=18	=18	=18
!	!	!	!	!	!	!	!	!LO:TX:a:t=h	!	!	!	!	!	!
4F\	8d/L	.	8b\L	.	8d/L	an-	pa-	8b\L	A-	pa-	2.ryy	2.ryy	.	.
!	!	!	!	!	!	!	!	!LO:TX:a:t=c	!	!	!	!	!	!
.	8e/J	.	8cc\J	.	8e/J	.	.	8cc\J	.	-ſto-	.	.	.	.
.	8qqg/	.	8qqee/	.	8qqg/	.	.	8qqee/	.	.	.	.	.	.
!	!	!	!	!	!	!	!	!LO:TX:a:t=d	!	!	!	!	!	!
4GG/	8f/L	.	8dd\L	.	8f/L	-nu-	-sto-	8dd\L	-nnu-	-rel-	.	.	.	.
!	!	!	!	!	!	!	!	!LO:TX:a:t=c	!	!	!	!	!	!
.	16e/L	.	16cc\L	.	16e/L	.	-rel-	16cc\L	.	.	.	.	.	.
!	!	!	!	!	!	!	!	!LO:TX:a:t=h	!	!	!	!	!	!
.	16d/JJ	.	16b\JJ	.	16d/JJ	.	.	16b\JJ	.	.	.	.	.	.
.	8qqd/	.	8qqb/	.	8qqd/	.	.	8qqb/	.	.	.	.	.	.
!	!	!	!	!	!	!	!	!LO:TX:a:t=c	!	!	!	!	!	!
4C/	4e/	.	4cc\	.	4e/	-a	-la	4cc\	-a	-la	.	.	.	.
=19	=19	=19	=19	=19	=19	=19	=19	=19	=19	=19	=19	=19	=19	=19
!	!	!	!	!	!	!	!	!LO:TX:a:t=g	!	!	!	!	!	!
4r	4r	.	4r	.	8e/	no-	dul-	8g/	no-	dul-	2.ryy	2.ryy	.	.
!	!	!	!	!	!	!	!	!LO:TX:a:t=c	!	!	!	!	!	!
.	.	.	.	.	8a\	-vi	-ci	8cc\	-vi	-ci	.	.	.	.
!	!	!	!	!	!	!	!	!LO:TX:a:i:t=versi	!	!	!	!	!	!
4E\	4cc\	.	4ee\	.	4cc\	an-	vo-	4ee\	an-	vo-	.	.	.	.
4C/	4cc\	.	4ee\	.	4cc\	-ni	-ce	4ee\	-ni	-ce	.	.	.	.
=20	=20	=20	=20	=20	=20	=20	=20	=20	=20	=20	=20	=20	=20	=20
!	!	!	!	!	!	!	!	!LO:TX:a:t=d	!	!	!	!	!	!
4G\	8b\L	.	8dd\L	.	8b\L	Sce-	et	8dd\L	Sce-	et	2.ryy	2.ryy	.	.
!	!	!	!	!	!	!	!	!LO:TX:a:t=e	!	!	!	!	!	!
.	8cc\J	.	8ee\J	.	8cc\J	.	te-	8ee\J	.	te-	.	.	.	.
.	8qqee/	.	8qqaa/	.	8qqee/	.	.	16qqgg/	.	.	.	.	.	.
!	!	!	!	!	!	!	!	!LO:TX:a:t=f	!	!	!	!	!	!
4GG/	8dd\L	.	8gg\L	.	8dd\L	.	-nel-	8ff\L	.	-nel-	.	.	.	.
!	!	!	!	!	!	!	!	!LO:TX:a:t=e	!	!	!	!	!	!
.	16cc\L	.	16ee\L	.	16cc\L	.	.	16ee\L	.	.	.	.	.	.
!	!	!	!	!	!	!	!	!LO:TX:a:t=d	!	!	!	!	!	!
.	16b\JJ	.	16dd\JJ	.	16b\JJ	.	.	16dd\JJ	.	.	.	.	.	.
.	.	.	8qqdd/	.	8qqb/	.	.	8qqdd/	.	.	.	.	.	.
!	!	!	!	!	!	!	!	!LO:TX:a:t=e	!	!	!	!	!	!
4C/	4cc\	.	4ee\	.	4cc\	-na	-la	4ee\	-na	-la	.	.	.	.
!	!LO:LB:g=original	!	!	!	!LO:LB:g=original	!	!	!LO:LB:g=original	!	!	!	!	!	!
=21	=21	=21	=21	=21	=21	=21	=21	=21	=21	=21	=21	=21	=21	=21
!	!	!	!	!	!	!	!	!LO:TX:a:t=g	!	!	!	!	!	!
4c\	4ee\	.	4gg\	.	4ee\	flu-	Sa-	4gg\	flu-	Sa-	2.ryy	2.ryy	0.r	0.r
!	!	!	!	!	!	!	!	!LO:TX:a:t=f	!	!	!	!	!	!
4C/	4r	.	8ff\L	.	8dd\L	-at	-lu-	8ff\L	-at	-lu-	.	.	.	.
!	!	!	!	!	!	!	!	!LO:TX:a:t=e	!	!	!	!	!	!
.	.	.	8ee\J	.	8cc\J	.	-tans	8ee\J	.	.	.	.	.	.
!	!	!	!	!	!	!	!	!LO:TX:a:t=d	!	!	!	!	!	!
4r	(8b\L	.	8dd\L	.	8b\L	a-	.	8dd\	a-	-tanſ	.	.	.	.
!	!	!	!	!	!	!	!	!LO:TX:a:t=c	!	!	!	!	!	!
.	8cc\J)	.	8cc\J	.	8a\J	.	in	8cc\	.	in	.	.	.	.
=22	=22	=22	=22	=22	=22	=22	=22	=22	=22	=22	=22	=22	=22	=22
!	!	!	!	!	!	!	!	!LO:TX:a:t=c	!	!	!	!	!	!
4G\	4g/	.	4cc\	.	(4g\	-mae-	fan-	(4cc\	-mae-	fan-	2.ryy	2.ryy	.	.
!	!	!	!	!	!	!	!	!LO:TX:a:t=h	!	!	!	!	!	!
4GG/	4f/	.	4b\	.	4f\)	.	-tu-	4b\)	.	-tu-	.	.	.	.
!	!	!	!	!	!	!	!	!LO:TX:a:t=c	!	!	!	!	!	!
4C/	4e/	.	4cc\	.	4e/	-na	-lum	4cc\	-na	-lum	.	.	.	.
=23	=23	=23	=23	=23	=23	=23	=23	=23	=23	=23	=23	=23	=23	=23
!	!	!	!	!	!	!	!	!LO:TX:a:t=d	!	!	!	!	!	!
4r	4b\	.	16g/LL	.	8b\L	vo-	ne-	8dd\L	vo-	ne-	2.ryy	2.ryy	.	.
.	.	.	16b/J	.	.	.	.	.	.	.	.	.	.	.
!	!	!	!	!	!	!	!	!LO:TX:a:t=e	!	!	!	!	!	!
.	.	.	8dd/J	.	8cc\J	.	-o	8ee\J	.	-o	.	.	.	.
!	!	!	!	!	!	!	!	!LO:TX:a:t=f	!	!	!	!	!	!
4B\	4dd\	.	4ff\|	.	4dd\	.	na-	4ff\	.	na-	.	.	.	.
!	!	!	!	!	!	!	!	!LO:TX:a:t=e	!	!	!	!	!	!
4c\	4cc\	.	4ee\|	.	4cc\	-cis	-tum	4ee\	-cis	-tum	.	.	.	.
!LO:LB:g=original	!	!	!	!	!	!	!	!	!	!	!	!	!	!
=24	=24	=24	=24	=24	=24	=24	=24	=24	=24	=24	=24	=24	=24	=24
.	8qqcc/	.	4qqff/	.	8qqdd/	.	.	16qqff/	.	.	.	.	.	.
!	!	!	!	!	!	!	!	!LO:TX:a:t=e	!	!	!	!	!	!
4G\	4b\	.	8ee\L	.	8cc\L	ve-	Je-	8ee\	ve-	Je-	2.ryy	2.ryy	.	.
!	!	!	!	!	!	!	!	!LO:TX:a:t=d	!	!	!	!	!	!
.	.	.	8dd\J	.	8b\J	.	-su-	8dd\	.	-su-	.	.	.	.
!	!	!	!	!	!	!	!	!LO:TX:a:t=d	!	!	!	!	!	!
4D/	4b\	.	4dd\	.	4b\	-na	-lum	4dd\	-na	-lum	.	.	.	.
4GG/	4r	.	4r	.	4r	.	.	4r	.	.	.	.	.	.
!	!	!	!LO:LB:g=original	!	!LO:LB:g=original	!	!	!LO:LB:g=original	!	!	!	!	!	!LO:LB:g=original
=25:|!|:	=25:|!|:	=25:|!|:	=25:|!|:	=25:|!|:	=25:|!|:	=25:|!|:	=25:|!|:	=25:|!|:	=25:|!|:	=25:|!|:	=25:|!|:	=25:|!|:	=25:|!|:	=25:|!|:
!	!	!	!	!	!	!	!	!LO:TX:a:t=g	!	!	!	!	!	!
4c\	4r	.	8gg\L	.	4g\	O	.	4g\	O	.	2.ryy	2.ryy	0.r	0.r
.	.	.	8ee\	.	.	.	.	.	.	.	.	.	.	.
4G\	(8g\L	.	(8cc\	.	4ee\	Puer	.	4gg\	Pu-	.	.	.	.	.
.	8cc\J)	.	8ee\)	.	.	.	.	.	.	.	.	.	.	.
4E\	(8cc\L	.	(8ee\	.	4ee\	.	.	4gg\	-er	.	.	.	.	.
.	8ee\J)	.	8gg\J)	.	.	.	.	.	.	.	.	.	.	.
=26	=26	=26	=26	=26	=26	=26	=26	=26	=26	=26	=26	=26	=26	=26
.	8qqff/	.	8qqaa/	.	8qqff/	.	.	.	.	.	.	.	.	.
4C/	4ee\	.	4gg\	.	4ee\	blan-	.	4gg\	blan-	.	2.ryy	2.ryy	.	.
!	!	!	!	!	!	!	!	!LO:TX:a:t=f	!	!	!	!	!	!
4r	8dd\L	.	8ff\L	.	8dd\L	-du-	.	8ff\L	-du-	.	.	.	.	.
!	!	!	!	!	!LO:SIC:v:s=8cc#\J	!	!	!LO:TX:a:t=e	!	!	!	!	!	!
.	8cc#X\J	.	8ee\J	.	8cc\J	.	.	8ee\J	.	.	.	.	.	.
!	!	!	!	!	!	!	!	!LO:TX:a:t=f	!	!	!	!	!	!
4r	4dd\	.	4ff\	.	4dd\	-le	.	4ff\	-le	.	.	.	.	.
!	!LO:LB:g=original	!	!	!	!	!	!	!	!	!	!	!	!	!
=27	=27	=27	=27	=27	=27	=27	=27	=27	=27	=27	=27	=27	=27	=27
!	!	!	!	!	!	!	!	!LO:TX:a:t=g	!	!	!	!	!	!
4G\	4r	.	8ff\L	.	8b\	De-	.	8g/	De-	.	2.ryy	2.ryy	.	.
!	!	!	!	!	!	!	!	!LO:TX:a:t=g	!	!	!	!	!	!
.	.	.	8dd\	.	8b\	-i	.	8g/	-i	.	.	.	.	.
*	*	*	*	*	*2\right	*	*	*2\right	*	*	*	*	*	*
!	!	!	!	!	!	!	!	!LO:TX:a:t=f	!	!	!	!	!	!
4D/	(8g/L	.	(8b\	.	2dd\	In-	.	2ff\	In-	.	.	.	.	.
.	8b/J)	.	8dd\)	.	.	.	.	.	.	.	.	.	.	.
4BB/	(8b\L	.	(8dd\	.	.	.	.	.	.	.	.	.	.	.
.	8dd\J)	.	8ff\J)	.	.	.	.	.	.	.	.	.	.	.
=28	=28	=28	=28	=28	=28	=28	=28	=28	=28	=28	=28	=28	=28	=28
4GG/	(8dd\L	.	8ff\L	.	8dd\L	-fan-	.	8ff\L	-fan-	.	2.ryy	2.ryy	.	.
!	!	!	!	!	!	!	!	!LO:TX:a:t=e	!	!	!	!	!	!
.	8ccn\)	.	8ee\	.	8cc\J	.	.	8ee\J	.	.	.	.	.	.
!	!	!	!	!	!	!	!	!LO:TX:a:t=e	!	!	!	!	!	!
4G\	(8cc\	.	8ee\	.	8cc\L	-tu-	.	8ee\L	-tu-	.	.	.	.	.
!	!	!	!	!	!	!	!	!LO:TX:a:t=d	!	!	!	!	!	!
.	8b\J)	.	8dd\J	.	8b\J	.	.	8dd\J	.	.	.	.	.	.
!	!	!	!	!	!	!	!	!LO:TX:a:t=e	!	!	!	!	!	!
4GG/	4b\	.	4dd\	.	4b\	-le	.	4ee\	-le	.	.	.	.	.
=29	=29	=29	=29	=29	=29	=29	=29	=29	=29	=29	=29	=29	=29	=29
*	*	*	*	*	*	*ij	*	*	*ij	*	*	*	*	*
!	!	!	!	!	!	!	!	!LO:TX:a:t=g	!	!	!	!	!	!
4c\	(8ee\L	.	(8gg\L	.	4g\	O	.	4g\	O	.	2.ryy	2.ryy	0.r	0.r
.	8cc\J)	.	8ee\J)	.	.	.	.	.	.	.	.	.	.	.
!	!	!	!	!	!	!	!	!LO:TX:a:t=g	!	!	!	!	!	!
4G\	8r	.	8r	.	4ee\	Pu-	.	4gg\	Pu-	.	.	.	.	.
.	8g\L	.	8cc\L	.	.	.	.	.	.	.	.	.	.	.
!	!	!	!	!	!	!	!	!LO:TX:a:t=g	!	!	!	!	!	!
4E\	8cc\	.	8ee\	.	4ee\	-er	.	4gg\	-er	.	.	.	.	.
.	8ee\J	.	8gg\J	.	.	.	.	.	.	.	.	.	.	.
*	*	*	*	*	*	*	*	*custos:gg	*	*	*	*	*	*
!	!	!	!	!	!LO:LB:g=original	!	!	!LO:LB:g=original	!	!	!	!	!	!
=30	=30	=30	=30	=30	=30	=30	=30	=30	=30	=30	=30	=30	=30	=30
.	8qqff/	.	8qqaa/	.	8qqff/	.	.	.	.	.	.	.	.	.
!	!	!	!	!	!	!	!	!LO:TX:a:t=g	!	!	!	!	!	!
4C/	4ee\	.	4gg\	.	4ee\	blan	.	4gg\	blan-	.	2.ryy	2.ryy	.	.
!	!	!	!	!	!	!	!	!LO:TX:a:t=f	!	!	!	!	!	!
4r	8dd\L	.	8ff\L	.	8dd\L	du-	.	8ff\L	-du-	.	.	.	.	.
!	!	!	!	!	!LO:SIC:v:s=8cc#\J	!	!	!LO:TX:a:t=e	!	!	!	!	!	!
.	8cc#X\J	.	8ee\J	.	8cc\J	.	.	8ee\J	.	.	.	.	.	.
!	!	!	!	!	!	!	!	!LO:TX:a:t=f	!	!	!	!	!	!
4r	4dd\	.	4ff\	.	4dd\	-le	.	4ff\	-le	.	.	.	.	.
!LO:LB:g=original	!	!	!	!	!	!	!	!	!	!	!	!	!	!
=31	=31	=31	=31	=31	=31	=31	=31	=31	=31	=31	=31	=31	=31	=31
!	!	!	!	!	!	!	!	!LO:TX:a:t=g	!	!	!	!	!	!
4G\	(8dd\L	.	8ff\L	.	8b\	De-	.	8g/	De-	.	2.ryy	2.ryy	.	.
!	!	!	!	!	!	!	!	!LO:TX:a:t=g	!	!	!	!	!	!
.	8b\J)	.	8dd\J	.	8b\	-i	.	8g/	-i	.	.	.	.	.
!	!	!	!	!	!	!	!	!LO:TX:a:t=f	!	!	!	!	!	!
4D/	8r	.	8r	.	2dd\	In-	.	2ff\	In-	.	.	.	.	.
.	8g\L	.	8b\L	.	.	.	.	.	.	.	.	.	.	.
4BB/	8b\	.	8dd\	.	.	.	.	.	.	.	.	.	.	.
.	8dd\J	.	8ff\J	.	.	.	.	.	.	.	.	.	.	.
!	!	!	!LO:LB:g=original	!	!	!	!	!	!	!	!	!	!	!
=32	=32	=32	=32	=32	=32	=32	=32	=32	=32	=32	=32	=32	=32	=32
!	!	!	!	!	!	!	!	!LO:TX:a:t=f	!	!	!	!	!	!
4GG/	8dd\L	.	(8ff\L	.	8dd\L	-fan-	.	8ff\L	-fan-	.	2.ryy	2.ryy	.	.
!	!	!	!	!	!	!	!	!LO:TX:a:t=e	!	!	!	!	!	!
.	8ccn\	.	8ee\)	.	8cc\J	.	.	8ee\J	.	.	.	.	.	.
!	!	!	!	!	!	!	!	!LO:TX:a:t=e	!	!	!	!	!	!
4G\	8cc\	.	(8ee\	.	8cc\L	-tu-	.	8ee\L	-tu-	.	.	.	.	.
!	!	!	!	!	!	!	!	!LO:TX:a:t=d	!	!	!	!	!	!
.	8b\J	.	8dd\J)	.	8b\J	.	.	8dd\J	.	.	.	.	.	.
4GG/	4cc\	.	4dd\	.	4b\	-le	.	4ee\	-le	.	.	.	.	.
*	*	*	*	*	*	*Xij	*	*	*Xij	*	*	*	*	*
!	!LO:LB:g=original	!	!	!	!	!	!	!	!	!	!	!	!	!
=33	=33	=33	=33	=33	=33	=33	=33	=33	=33	=33	=33	=33	=33	=33
!	!	!	!	!	!	!	!	!LO:TX:a:t=a	!	!	!	!	!	!
4FF/	2.r	.	4aa\	.	2.r	.	.	4aa\	Do-	.	2.ryy	2.ryy	0.r	0.r
!	!	!	!	!	!	!	!	!LO:TX:a:t=g	!	!	!	!	!	!
4r	.	.	8gg\L	.	.	.	.	8gg\L	.	.	.	.	.	.
!	!	!	!	!	!	!	!	!LO:TX:a:t=f	!	!	!	!	!	!
.	.	.	8ff\	.	.	.	.	8ff\J	.	.	.	.	.	.
!	!	!	!	!	!	!	!	!LO:TX:a:t=e	!	!	!	!	!	!
4F\	.	.	8ee\	.	.	.	.	8ee\L	-rmi	.	.	.	.	.
!	!	!	!	!	!	!	!	!LO:TX:a:t=d	!	!	!	!	!	!
.	.	.	8dd\J	.	.	.	.	8dd\J	.	.	.	.	.	.
=34	=34	=34	=34	=34	=34	=34	=34	=34	=34	=34	=34	=34	=34	=34
!	!	!	!	!	!	!	!	!LO:TX:a:t=c	!	!	!	!	!	!
4G\	(4e/	.	4cc\	.	4.e/	pu-	.	4.cc\	Pu-	.	2.ryy	2.ryy	.	.
4GG/	4d/)	.	4b\	.	.	.	.	.	.	.	.	.	.	.
!	!	!	!	!	!	!	!	!LO:TX:a:t=h	!	!	!	!	!	!
.	.	.	.	.	8d/	-pu-	.	8b\	-pu-	.	.	.	.	.
!	!	!	!	!	!	!	!	!LO:TX:a:t=c	!	!	!	!	!	!
4C/	4e/	.	4cc\	.	4e/	-le	.	4cc\	-le	.	.	.	.	.
!	!	!	!	!	!	!	!	!LO:LB:g=original	!	!	!	!	!	!
=35	=35	=35	=35	=35	=35	=35	=35	=35	=35	=35	=35	=35	=35	=35
!	!	!	!	!	!	!	!	!LO:TX:a:t=a	!	!	!	!	!	!
4F\	2.r	.	4aa\	.	2.r	.	.	4aa\	o	.	2.ryy	2.ryy	.	.
!	!	!	!	!	!	!	!	!LO:TX:a:t=g	!	!	!	!	!	!
4r	.	.	8gg\L	.	.	.	.	8gg\L	dul-	.	.	.	.	.
!	!	!	!	!	!	!	!	!LO:TX:a:t=f	!	!	!	!	!	!
.	.	.	8ff\J	.	.	.	.	8ff\J	.	.	.	.	.	.
!	!	!	!	!	!	!	!	!LO:TX:a:t=e	!	!	!	!	!	!
4F\	.	.	8ee\L	.	.	.	.	8ee\L	-cis	.	.	.	.	.
!	!	!	!	!	!	!	!	!LO:TX:a:t=d	!	!	!	!	!	!
.	.	.	8dd\J	.	.	.	.	8dd\J	.	.	.	.	.	.
!	!	!	!	!	!LO:LB:g=original	!	!	!	!	!	!	!	!	!
=36	=36	=36	=36	=36	=36	=36	=36	=36	=36	=36	=36	=36	=36	=36
!	!	!	!	!	!	!	!	!LO:TX:a:t=c	!	!	!	!	!	!
4G\	4e/	.	4cc\	.	4e/	Je-	.	4cc\	Je-	.	2.ryy	2.ryy	.	.
!	!	!	!	!	!	!	!	!LO:TX:a:t=h	!	!	!	!	!	!
4GG/	4d/	.	4b\	.	4d/	-su-	.	4b\	-su-	.	.	.	.	.
!	!	!	!	!	!	!	!	!LO:TX:a:t=c	!	!	!	!	!	!
4C/	4e/	.	4cc\	.	4e/	-le	.	4cc\	-le	.	.	.	.	.
!LO:LB:g=original	!	!	!	!	!	!	!	!	!	!	!	!	!	!
=37	=37	=37	=37	=37	=37	=37	=37	=37	=37	=37	=37	=37	=37	=37
!	!	!	!	!	!	!	!	!LO:TX:a:t=d	!	!	!	!	!	!
4F\	8f/L	.	8dd\L	.	4a\	Sva-	.	8dd\L	Sua-	.	2.ryy	2.ryy	1.r	1.r
!	!	!	!	!	!	!	!	!LO:TX:a:t=f	!	!	!	!	!	!
.	8a/J	.	8ff\	.	.	.	.	8ff\J	.	.	.	.	.	.
!	!	!	!	!	!	!	!	!LO:TX:a:t=e	!	!	!	!	!	!
4G\	8g/L	.	8ee\	.	8g/L	-viſ-	.	8ee\L	-vi-	.	.	.	.	.
!	!	!	!	!	!	!	!	!LO:TX:a:t=d	!	!	!	!	!	!
.	8f/	.	8dd\	.	8f/J	.	.	8dd\J	.	.	.	.	.	.
!	!	!	!	!	!	!	!	!LO:TX:a:t=c	!	!	!	!	!	!
4GG/	8e/	.	8cc\	.	8e/L	-si-	.	8cc\L	-ſsi-	.	.	.	.	.
!	!	!	!	!	!	!	!	!LO:TX:a:t=b	!	!	!	!	!	!
.	8d/J	.	8b\J	.	8d/J	.	.	8b\J	.	.	.	.	.	.
=38	=38	=38	=38	=38	=38	=38	=38	=38	=38	=38	=38	=38	=38	=38
.	.	.	4qqb/	.	.	.	.	4qqb/	.	.	.	.	.	.
!LO:TX:t=P:problem=mixed beam	!	!	!	!	!	!	!	!LO:TX:a:t=c.	!	!	!	!	!	!
8C;</L	2e/	.	2cc\	.	2e/	-me	.	2cc\	-me	.	2.ryy	2.ryy	.	.
8c\	.	.	.	.	.	.	.	.	.	.	.	.	.	.
8G\	.	.	.	.	.	.	.	.	.	.	.	.	.	.
8E\J	.	.	.	.	.	.	.	.	.	.	.	.	.	.
!	!	!	!	!	!	!	!	!	!	!	!	!	!LO:TX:b:i:t=Da Capo.	!LO:TX:b:i:t=Da Capo.
4C/	4r	.	4r	.	4r	.	.	4r	.	.	.	.	.	.
=39:|!	=39:|!	=39:|!	=39:|!	=39:|!	=39:|!	=39:|!	=39:|!	=39:|!	=39:|!	=39:|!	=39:|!	=39:|!	=39:|!	=39:|!
2.ryy	2.ryy	.	2.ryy	.	2.r	.	.	2.r	.	.	2.ryy	2.ryy	2.ryy	2.ryy
=40	=40	=40	=40	=40	=40	=40	=40	=40	=40	=40	=40	=40	=40	=40
2.ryy	2.ryy	.	2.ryy	.	2.r	.	.	2.r	.	.	2.ryy	2.ryy	2.ryy	2.ryy
=41	=41	=41	=41	=41	=41	=41	=41	=41	=41	=41	=41	=41	=41	=41
2.ryy	2.ryy	.	2.ryy	.	2.r	.	.	2.r	.	.	2.ryy	2.ryy	2.ryy	2.ryy
=42	=42	=42	=42	=42	=42	=42	=42	=42	=42	=42	=42	=42	=42	=42
2.ryy	2.ryy	.	2.ryy	.	2.r	.	.	2.r	.	.	2.ryy	2.ryy	2.ryy	2.ryy
=43	=43	=43	=43	=43	=43	=43	=43	=43	=43	=43	=43	=43	=43	=43
2.ryy	2.ryy	.	2.ryy	.	2.r	.	.	2.r	.	.	2.ryy	2.ryy	2.ryy	2.ryy
=44	=44	=44	=44	=44	=44	=44	=44	=44	=44	=44	=44	=44	=44	=44
2.ryy	2.ryy	.	2.ryy	.	2.r	.	.	2.r	.	.	2.ryy	2.ryy	2.ryy	2.ryy
=45	=45	=45	=45	=45	=45	=45	=45	=45	=45	=45	=45	=45	=45	=45
2.ryy	2.ryy	.	2.ryy	.	2.r	.	.	2.r	.	.	2.ryy	2.ryy	2.ryy	2.ryy
=46	=46	=46	=46	=46	=46	=46	=46	=46	=46	=46	=46	=46	=46	=46
2.ryy	2.ryy	.	2.ryy	.	2.r	.	.	2.r	.	.	2.ryy	2.ryy	2.ryy	2.ryy
=47	=47	=47	=47	=47	=47	=47	=47	=47	=47	=47	=47	=47	=47	=47
2.ryy	2.ryy	.	2.ryy	.	2.r	.	.	2.r	.	.	2.ryy	2.ryy	2.ryy	2.ryy
=48	=48	=48	=48	=48	=48	=48	=48	=48	=48	=48	=48	=48	=48	=48
2.ryy	2.ryy	.	2.ryy	.	2.r	.	.	2.r	.	.	2.ryy	2.ryy	2.ryy	2.ryy
=49	=49	=49	=49	=49	=49	=49	=49	=49	=49	=49	=49	=49	=49	=49
2.ryy	2.ryy	.	2.ryy	.	2.r	.	.	2.r	.	.	2.ryy	2.ryy	2.ryy	2.ryy
=50	=50	=50	=50	=50	=50	=50	=50	=50	=50	=50	=50	=50	=50	=50
2.ryy	2.ryy	.	2.ryy	.	2.r	.	.	2.r	.	.	2.ryy	2.ryy	2.ryy	2.ryy
=51	=51	=51	=51	=51	=51	=51	=51	=51	=51	=51	=51	=51	=51	=51
2.ryy	2.ryy	.	2.ryy	.	2.r	.	.	2.r	.	.	2.ryy	2.ryy	2.ryy	2.ryy
=52	=52	=52	=52	=52	=52	=52	=52	=52	=52	=52	=52	=52	=52	=52
2.ryy	2.ryy	.	2.ryy	.	2.r	.	.	2.r	.	.	2.ryy	2.ryy	2.ryy	2.ryy
=53	=53	=53	=53	=53	=53	=53	=53	=53	=53	=53	=53	=53	=53	=53
2.ryy	2.ryy	.	2.ryy	.	2.r	.	.	2.r	.	.	2.ryy	2.ryy	2.ryy	2.ryy
=54	=54	=54	=54	=54	=54	=54	=54	=54	=54	=54	=54	=54	=54	=54
2.ryy	2.ryy	.	2.ryy	.	2.r	.	.	2.r	.	.	2.ryy	2.ryy	2.ryy	2.ryy
==	==	==	==	==	==	==	==	==	==	==	==	==	==	==
*-	*-	*-	*-	*-	*-	*-	*-	*-	*-	*-	*-	*-	*-	*-
!!!system-decoration: [(g1)][(g2)][(g3)][(g4)]<s9>
!!!RDF**kern: < = below
!!!RDF**kern: | = vertical stroke
!!!ENC: Anastazja Marusiak
!!!END: 2020-08-12
!!!ENC: Andrzej Kubiczek
!!!END: 2021-12-28
!!!YEC: Copyright 2022 Narodowy Instytut Fryderyka Chopina (https://polishscores.org)
!!!YEM: Licence CC BY 4.0 (https://creativecommons.org/licenses/by/4.0)
